icons/cloud-arrow-up-outline.svg

<svg xmlns="http://www.w3.org/2000/svg" width="24" height="24" viewBox="0 0 24 24">
  <path d="M12.5,3 C16.918278,3 20.5,6.581722 20.5,11 C20.5,11.1204206 20.4973322,11.2405319 20.4920144,11.3602705 L20.4920144,11.3602705 L20.472,11.654 L20.5287365,11.6859719 C21.9683651,12.5292172 22.9183208,14.0574067 22.9949844,15.7749408 L22.9949844,15.7749408 L23,16 C23,18.6686219 20.9044736,20.8633628 18.2241536,20.9948042 L18.2241536,20.9948042 L18,21 L6.5,21 C6.38859112,21 6.28147754,20.9817932 6.18145173,20.9482064 L6.18145173,20.9482064 L6.166,20.942 L5.94889404,20.9081606 C3.19270368,20.4215684 1.11197825,18.064907 1.0043751,15.2308104 L1.0043751,15.2308104 L1,15 C1,12.5890868 2.43448394,10.4577805 4.56984355,9.51249345 L4.56984355,9.51249345 L4.646,9.48 L4.66919046,9.36089212 C5.4117318,5.78500472 8.52762508,3.12063681 12.2455902,3.00398632 L12.2455902,3.00398632 Z M12.5,5 C9.43685135,5 6.87436978,7.30747742 6.53871277,10.3255833 C6.49452585,10.7228961 6.21795931,11.0557172 5.83545006,11.171892 C4.16485155,11.6792823 3,13.2264394 3,15 C3,17.0601278 4.56515494,18.7784159 6.59904064,18.980229 L6.59904064,18.980229 L6.65802984,18.9878352 L6.722,19 L17.9754867,19.0003005 L18.1505472,18.9963105 C19.7424301,18.9180655 21,17.600955 21,16 C21,14.7340634 20.2086704,13.6174613 19.0426136,13.1870228 C18.5876682,13.0190841 18.3187909,12.5489278 18.4047462,12.0716539 C18.4679372,11.7207805 18.5,11.3626762 18.5,11 C18.5,7.6862915 15.8137085,5 12.5,5 Z M12,9 L12.019,9.001 L12.03,9.001 L12.081,9.003 L12.1489612,9.01101934 L12.1489612,9.01101934 C12.165949,9.01362808 12.1833753,9.01670217 12.2007258,9.02024007 C12.2227461,9.0246398 12.2444365,9.02983363 12.2658396,9.03572097 C12.2814633,9.04009773 12.2968513,9.04472872 12.3121425,9.04973809 C12.3317977,9.05612249 12.3515792,9.06331574 12.3710585,9.07110396 L12.4232215,9.09367336 L12.4232215,9.09367336 C12.4438914,9.10337664 12.4642939,9.11379392 12.484277,9.12487577 C12.4963944,9.13149883 12.5086131,9.13860692 12.5207088,9.14599545 C12.546275,9.1617187 12.5711307,9.17849009 12.5951593,9.19631351 C12.6012086,9.20071786 12.6070733,9.20517454 12.6128994,9.20970461 C12.6196628,9.21507113 12.6225624,9.2173721 12.625449,9.21968877 L12.7071068,9.29289322 L15.7071068,12.2928932 C16.0976311,12.6834175 16.0976311,13.3165825 15.7071068,13.7071068 C15.3466228,14.0675907 14.7793918,14.0953203 14.3871006,13.7902954 L14.2928932,13.7071068 L13,12.415 L13,16 C13,16.5522847 12.5522847,17 12,17 C11.4871642,17 11.0644928,16.6139598 11.0067277,16.1166211 L11,16 L11,12.415 L9.70710678,13.7071068 C9.31658249,14.0976311 8.68341751,14.0976311 8.29289322,13.7071068 C7.93240926,13.3466228 7.90467972,12.7793918 8.20970461,12.3871006 L8.29289322,12.2928932 L11.2928932,9.29289322 L11.37,9.224 L11.38,9.215 L11.4046934,9.19633458 L11.4046934,9.19633458 C11.4288693,9.17849009 11.453725,9.1617187 11.4793398,9.14606743 L11.5159379,9.12467117 L11.5159379,9.12467117 C11.5357061,9.11379392 11.5561086,9.10337664 11.5769009,9.09365378 L11.628664,9.07122549 L11.628664,9.07122549 C11.6484208,9.06331574 11.6682023,9.05612249 11.6882636,9.04954668 C11.7031487,9.04472872 11.7185367,9.04009773 11.734007,9.03584514 C11.7555635,9.02983363 11.7772539,9.0246398 11.7992059,9.02016515 C11.8166247,9.01670217 11.834051,9.01362808 11.8515331,9.0110178 L11.909968,9.00399798 L11.909968,9.00399798 C11.9208131,9.00307004 11.9308872,9.00232561 11.9409686,9.0017331 L11.980824,9.00018018 L12,9 L12,9 Z"/>
</svg>

<svg xmlns="http://www.w3.org/2000/svg" viewBox="0 0 24 24">
  <path d="M12.5 3a8 8 0 0 1 8 8.36l-.03.3.06.03a5 5 0 0 1 2.46 4.08L23 16a5 5 0 0 1-4.78 5H6.5a1 1 0 0 1-.32-.05h-.01l-.22-.04A6 6 0 0 1 1 15.23V15a6 6 0 0 1 3.57-5.49l.08-.03.02-.12A8 8 0 0 1 12.25 3zm0 2a6 6 0 0 0-5.96 5.33 1 1 0 0 1-.7.84 4 4 0 0 0 .76 7.81h.06l.06.02h11.43a3 3 0 0 0 .9-5.81 1 1 0 0 1-.65-1.12A6 6 0 0 0 12.5 5zM12 9h.08l.07.01a1.08 1.08 0 0 1 .22.06l.05.02a1.02 1.02 0 0 1 .2.13l.09.07 3 3a1 1 0 0 1-1.32 1.5l-.1-.08L13 12.4V16a1 1 0 0 1-2 .12V12.4l-1.3 1.3a1 1 0 0 1-1.49-1.32l.08-.1 3-3 .08-.07h.01l.02-.02.08-.05.04-.03.06-.03.05-.02a.99.99 0 0 1 .22-.06h.09l.04-.01H12z"/>
</svg>
